src/svg/cancel-ico.svg

<?xml version="1.0" ?><svg height="48" viewBox="0 0 48 48" width="48" xmlns="http://www.w3.org/2000/svg"><path d="M24 4c-11.05 0-20 8.95-20 20s8.95 20 20 20 20-8.95 20-20-8.95-20-20-20zm10 27.17l-2.83 2.83-7.17-7.17-7.17 7.17-2.83-2.83 7.17-7.17-7.17-7.17 2.83-2.83 7.17 7.17 7.17-7.17 2.83 2.83-7.17 7.17 7.17 7.17z"/><path d="M0 0h48v48h-48z" fill="none"/></svg>

<svg height="48" width="48" xmlns="http://www.w3.org/2000/svg"><path d="M24 4C12.95 4 4 12.95 4 24s8.95 20 20 20 20-8.95 20-20S35.05 4 24 4zm10 27.17L31.17 34 24 26.83 16.83 34 14 31.17 21.17 24 14 16.83 16.83 14 24 21.17 31.17 14 34 16.83 26.83 24 34 31.17z"/><path d="M0 0h48v48H0z" fill="none"/></svg>
